src/assets/svgs/chat.svg

<svg width="23" height="23" viewBox="0 0 23 23" fill="none" xmlns="http://www.w3.org/2000/svg">
<path fill-rule="evenodd" clip-rule="evenodd" d="M11.3152 0.250336C7.36464 0.23446 3.69623 2.28295 1.64317 5.65018C-0.410163 9.01785 -0.548007 13.213 1.27986 16.7079L1.48666 17.111C1.56572 17.2592 1.58097 17.419 1.53516 17.5668C1.2398 18.3473 0.980284 19.1902 0.77321 20.0466L0.751225 20.2311C0.751225 21.0922 1.21068 21.6839 2.12255 21.6636L2.27438 21.6454C3.10273 21.4624 3.91849 21.2268 4.71668 20.9398C4.82249 20.913 4.99579 20.9234 5.15218 20.9874L5.92002 21.4219C5.92175 21.4273 5.92305 21.4313 5.93109 21.436L5.98262 21.454C10.1171 23.628 15.1664 23.0282 18.6747 19.9464C22.1835 16.8642 23.4224 11.9389 21.7885 7.56692C20.1547 3.19534 15.9879 0.284677 11.3152 0.250336ZM10.9884 1.82396L11.3044 1.81901C15.326 1.8496 18.9122 4.35474 20.3181 8.11644C21.7238 11.8777 20.6579 16.1149 17.6387 18.7671L17.391 18.9775C14.4705 21.3753 10.4155 21.8586 7.01178 20.2152L6.68808 20.053L6.70196 20.0548L6.68148 20.0492L6.20637 19.7766C6.0353 19.6799 5.89959 19.6067 5.79021 19.554C5.26916 19.3392 4.74023 19.3075 4.24275 19.4445L3.77181 19.6063C3.46056 19.709 3.15419 19.8019 2.84932 19.8859L2.40488 20.002L2.29901 20.4156C2.49097 19.6217 2.73154 18.8403 3.01938 18.0758C3.20459 17.4831 3.14795 16.8894 2.87724 16.3828L2.6737 15.9858C1.0983 12.9737 1.21688 9.3647 2.98345 6.46736C4.69505 3.66016 7.71181 1.91771 10.9884 1.82396ZM5.03392 11.5003C5.03392 10.7913 5.60909 10.2171 6.31795 10.2171C7.02682 10.2171 7.60198 10.7913 7.60198 11.5003C7.60198 12.2093 7.02682 12.7835 6.31795 12.7835C5.60909 12.7835 5.03392 12.2093 5.03392 11.5003ZM10.0254 11.5003C10.0254 10.7913 10.6006 10.2171 11.3094 10.2171C12.0183 10.2171 12.5935 10.7913 12.5935 11.5003C12.5935 12.2093 12.0183 12.7835 11.3094 12.7835C10.6006 12.7835 10.0254 12.2093 10.0254 11.5003ZM16.3009 10.2171C15.5921 10.2171 15.0169 10.7913 15.0169 11.5003C15.0169 12.2093 15.5921 12.7835 16.3009 12.7835C17.0098 12.7835 17.585 12.2093 17.585 11.5003C17.585 10.7913 17.0098 10.2171 16.3009 10.2171Z" />
</svg>

<svg width="23" height="23" fill="none" xmlns="http://www.w3.org/2000/svg"><path clip-rule="evenodd" d="M11.315.25a11.272 11.272 0 0 0-9.672 5.4 11.235 11.235 0 0 0-.363 11.058l.207.403c.079.148.094.308.048.456-.295.78-.555 1.623-.762 2.48l-.022.184c0 .861.46 1.453 1.372 1.433l.151-.019a19.914 19.914 0 0 0 2.443-.705.763.763 0 0 1 .435.047l.768.435a.02.02 0 0 0 .011.014l.052.018a11.28 11.28 0 0 0 12.692-1.508 11.239 11.239 0 0 0 3.113-12.38A11.266 11.266 0 0 0 11.315.25zm-.327 1.574.316-.005a9.699 9.699 0 0 1 9.014 6.297 9.669 9.669 0 0 1-2.68 10.651l-.247.21a9.712 9.712 0 0 1-10.38 1.238l-.323-.162.014.002-.02-.006-.476-.272a7.546 7.546 0 0 0-.416-.223 2.361 2.361 0 0 0-1.547-.11l-.471.162c-.311.103-.618.196-.923.28l-.444.116-.106.414a19.94 19.94 0 0 1 .72-2.34 2.17 2.17 0 0 0-.142-1.693l-.203-.397a9.668 9.668 0 0 1 .31-9.519 9.7 9.7 0 0 1 8.004-4.643zM5.034 11.5a1.284 1.284 0 1 1 2.567.001 1.284 1.284 0 0 1-2.567 0zm4.991 0a1.284 1.284 0 1 1 2.568.001 1.284 1.284 0 0 1-2.568 0zm6.276-1.283a1.284 1.284 0 1 0 0 2.567 1.284 1.284 0 0 0 0-2.567z"/></svg>
